nova/resources/svg/fluent/star.svg

<svg width="24" height="24" viewBox="0 0 24 24" fill="none" xmlns="http://www.w3.org/2000/svg">
<path d="M8.64275 8.20794L11.3263 2.75964C11.6012 2.2015 12.397 2.2015 12.6719 2.75964L15.3555 8.20794L21.3664 9.07654C21.982 9.16549 22.228 9.92194 21.7825 10.356L17.435 14.5921L18.4613 20.5779C18.5664 21.1908 17.9228 21.658 17.3726 21.3682L11.9991 18.5378L6.62564 21.3682C6.07517 21.6582 5.43135 21.1904 5.53701 20.5773L6.5684 14.5921L2.21602 10.3563C1.77015 9.92237 2.01606 9.16552 2.63184 9.07654L8.64275 8.20794ZM11.9991 4.78841L9.81382 9.22513C9.70456 9.44695 9.49299 9.60066 9.24827 9.63602L4.3534 10.3433L7.89768 13.7927C8.07488 13.9652 8.15569 14.2139 8.1137 14.4576L7.27381 19.3314L11.6496 17.0265C11.8684 16.9113 12.1299 16.9113 12.3486 17.0265L16.7258 19.3322L15.8899 14.4569C15.8482 14.2136 15.9289 13.9653 16.1057 13.793L19.646 10.3435L14.75 9.63602C14.5052 9.60066 14.2937 9.44695 14.1844 9.22513L11.9991 4.78841Z" fill="currentColor"/>
</svg>

<svg viewBox="0 0 24 24" fill="none" xmlns="http://www.w3.org/2000/svg"><path d="M8.643 8.208l2.683-5.448a.75.75 0 011.346 0l2.683 5.448 6.011.869a.75.75 0 01.416 1.279l-4.347 4.236 1.026 5.986a.75.75 0 01-1.088.79l-5.374-2.83-5.373 2.83a.75.75 0 01-1.089-.79l1.031-5.986-4.352-4.236a.75.75 0 01.416-1.28l6.01-.868zm3.356-3.42L9.814 9.225a.75.75 0 01-.566.411l-4.895.707 3.545 3.45a.75.75 0 01.216.665l-.84 4.873 4.376-2.305a.75.75 0 01.699 0l4.377 2.306-.836-4.875a.75.75 0 01.216-.664l3.54-3.45-4.896-.707a.75.75 0 01-.566-.41L12 4.787z" fill="currentColor"/></svg>
